assets/Pretzel/Flat/pretzel_flat.svg

<svg width="32" height="32" viewBox="0 0 32 32" fill="none" xmlns="http://www.w3.org/2000/svg">
<path d="M29.9587 21.2487C29.8251 20.6586 29.3783 20.0952 28.6886 19.9082C28.6886 19.9107 28.6862 19.9131 28.6862 19.9131C28.6862 19.9107 28.6862 19.9082 28.6837 19.9058C28.6862 19.9058 28.6862 19.9058 28.6886 19.9058C28.8197 19.595 28.946 19.2866 29.048 18.966C32.0617 9.54362 25.908 5.01943 21.1045 5.01943C19.2128 5.01943 17.457 5.62654 16.0267 6.65863C15.7377 6.44978 15.439 6.26036 15.1306 6.10009C13.8775 5.40069 12.4471 5 10.9172 5C6.11374 5 2.1408 8.57953 2.1408 14.4661C2.1408 16.0373 2.41036 17.5575 2.9009 18.9684C3.01018 19.2866 3.12918 19.595 3.26031 19.9034C3.26031 19.9034 3.26031 19.9034 3.25789 19.9034C3.25789 19.9058 3.25789 19.9058 3.25789 19.9082C2.60706 20.1074 2.1578 20.6611 2.04123 21.2172C1.82996 22.1788 2.43221 23.1284 3.39145 23.3372C3.64158 23.4003 4.74167 23.5849 5.64262 23.6481L5.64019 23.6456C5.65962 23.648 5.67905 23.6505 5.69848 23.6529C5.67905 23.6505 5.65962 23.6505 5.64262 23.6481C5.96318 24.0075 6.31287 24.3596 6.67228 24.6874C9.12259 26.9192 12.3961 28.2888 15.9684 28.2888C19.5406 28.2888 22.8117 26.9289 25.2645 24.6971C25.6239 24.3693 25.9712 24.0196 26.2893 23.6529C26.2917 23.6529 26.2941 23.6505 26.2966 23.6505C26.299 23.6505 26.3014 23.6481 26.3039 23.6481C26.7628 23.6141 28.2587 23.4756 28.606 23.3591C29.558 23.1502 30.1675 22.2104 29.9587 21.2487ZM21.0948 8.57225C23.9458 8.57225 28.4967 11.4402 25.1455 19.1578C24.9876 19.5197 24.7642 19.8378 24.5554 20.1584H24.5578C24.5554 20.1584 24.5554 20.1608 24.5529 20.1608L24.5554 20.1584C24.0454 20.1438 23.3096 20.0637 22.8142 19.9884C22.683 19.9592 21.0924 19.5974 19.4726 18.8082C19.2905 18.7232 19.1084 18.6309 18.9287 18.5337C18.8704 18.5022 18.7854 18.4536 18.7052 18.4099C18.6664 18.388 18.6251 18.3637 18.5862 18.3419C18.5862 18.3395 18.5862 18.337 18.5862 18.337C18.5862 18.337 18.5862 18.337 18.5862 18.3346C19.917 16.183 19.5795 14.2548 19.6329 13.7181C19.6329 12.4772 19.3633 11.2873 18.8922 10.2163C18.7538 9.90789 18.6032 9.60919 18.4333 9.32021C18.4333 9.31778 18.4357 9.31778 18.4357 9.31535C19.2128 8.8418 20.1235 8.57225 21.0948 8.57225ZM10.9269 8.55282C11.5462 8.55282 12.1484 8.6621 12.707 8.86366C12.9061 8.94137 13.1077 9.03122 13.2995 9.13079V9.13322C13.2995 9.13322 13.4477 9.21093 13.5594 9.2765C13.5739 9.28621 13.5909 9.2935 13.6055 9.30321C13.6055 9.30321 13.6079 9.30321 13.6079 9.30564C12.0829 11.8822 12.4423 14.131 12.3864 14.6191C12.3864 15.6997 12.6171 16.6493 13.0178 17.5016C13.149 17.8125 13.4986 18.3832 13.4986 18.3832C11.9882 19.2866 9.6957 20.0807 7.37653 20.1438C7.3741 20.1438 7.37168 20.1414 7.36925 20.1414L7.3571 20.1341C7.14826 19.816 6.93941 19.4857 6.78399 19.1336C3.37931 11.5034 8.08564 8.55282 10.9269 8.55282ZM15.9708 24.7724C14.5696 24.7724 13.2388 24.4931 12.0197 23.9807C11.5389 23.7913 11.0896 23.5509 10.6501 23.2911C11.0095 23.2012 11.449 23.0822 11.959 22.9122C12.7191 22.6718 13.6104 22.3318 14.5016 21.8729C15.0723 21.5839 15.592 21.273 16.0704 20.933H16.0728C16.3739 21.1419 16.6726 21.3337 16.9835 21.5037C18.0544 22.123 19.1448 22.5747 20.0457 22.8855C20.5363 23.0555 20.9758 23.1866 21.3255 23.2765C20.9054 23.5363 20.4561 23.767 19.9972 23.9565C18.7611 24.481 17.4012 24.7724 15.9708 24.7724Z" fill="#FFB02E"/>
<path d="M13.6079 9.30322C14.2175 8.26142 15.048 7.36046 16.0291 6.66107C15.7377 6.45222 15.439 6.26038 15.1305 6.1001C14.1689 6.83106 13.2995 9.1308 13.2995 9.1308C13.2995 9.1308 13.4986 9.23765 13.6079 9.30322Z" fill="#D3883E"/>
<path d="M16.9786 21.4989C16.6678 21.3289 16.3691 21.1395 16.0679 20.9282C17.1486 20.1681 17.9888 19.2963 18.5789 18.337C18.7149 18.4172 18.9894 18.5677 18.9894 18.5677C18.9894 18.5677 18.0107 20.7193 16.9786 21.4989Z" fill="#D3883E"/>
<path d="M4.50961 19.9244C5.09173 20.0231 5.91868 20.1632 7.36438 20.1389C7.1531 19.8184 6.95397 19.4784 6.78398 19.1287C5.74218 19.1093 5.06464 19.0073 4.3531 18.8883C3.67369 18.7396 3.1734 18.8895 2.97767 18.9481C2.94323 18.9584 2.91822 18.9659 2.90332 18.9684C3.0126 19.289 3.13159 19.5974 3.26273 19.9082C3.66145 19.7807 3.98679 19.8358 4.50961 19.9244Z" fill="#D3883E"/>
<path d="M11.9073 24.0086C11.9697 23.9923 12.0075 23.9824 12.0173 23.9807C11.5364 23.7913 11.0872 23.5509 10.6476 23.2935C9.00599 23.6942 7.35222 23.7719 5.64502 23.6529C5.96315 24.0123 6.31527 24.362 6.67468 24.6922C8.70634 24.8477 11.3361 24.1584 11.9073 24.0086Z" fill="#D3883E"/>
<path d="M26.2941 23.6504C25.9736 24.0196 25.6239 24.3717 25.2645 24.702H24.9439C22.6897 24.702 21.499 24.3685 20.5572 24.1047C20.3597 24.0493 20.173 23.997 19.9899 23.9516C20.4513 23.7622 20.9005 23.5315 21.3207 23.2716C21.7821 23.4027 22.0905 23.461 22.1512 23.4707H22.1706C23.4893 23.7063 24.9342 23.75 26.2941 23.6504Z" fill="#D3883E"/>
<path d="M28.6861 19.9083C28.8148 19.5999 28.9363 19.289 29.0455 18.9685L28.9363 18.9369C28.3789 18.7885 27.9758 18.8537 27.3747 18.951C26.8549 19.0351 26.187 19.1433 25.143 19.1579C24.9633 19.5076 24.7642 19.8379 24.5529 20.1584C26.085 20.2012 26.9155 20.0522 27.4993 19.9474C27.9769 19.8617 28.2895 19.8056 28.6861 19.9083Z" fill="#D3883E"/>
<path d="M18.8898 10.2138C16.8062 10.8136 16.0874 13.7156 16.0874 13.7156C16.0874 13.4048 16.0679 13.1061 16.0072 12.8147C16.2768 11.3333 17.1875 10.0633 18.4284 9.31287C18.6008 9.60185 18.7514 9.90298 18.8898 10.2138Z" fill="#D3883E"/>
<path d="M16.0096 15.3379C15.9586 15.1072 15.9295 14.8668 15.9295 14.6167C15.9295 14.6167 15.5822 16.3992 13.0178 17.4993C13.1489 17.8101 13.3189 18.1015 13.4986 18.3808C14.6886 17.6693 15.7304 16.6785 16.0096 15.3379Z" fill="#D3883E"/>
<path d="M9.41946 6.81868C9.41946 7.05064 9.23143 7.23868 8.99947 7.23868C8.76751 7.23868 8.57947 7.05064 8.57947 6.81868C8.57947 6.58672 8.76751 6.39868 8.99947 6.39868C9.23143 6.39868 9.41946 6.58672 9.41946 6.81868Z" fill="#FFDEA7"/>
<path d="M24.9994 7.08876C24.9994 7.35386 24.7845 7.56876 24.5194 7.56876C24.2543 7.56876 24.0394 7.35386 24.0394 7.08876C24.0394 6.82367 24.2543 6.60876 24.5194 6.60876C24.7845 6.60876 24.9994 6.82367 24.9994 7.08876Z" fill="#FFDEA7"/>
<path d="M29.5494 13.8788C29.5494 14.3703 29.1509 14.7688 28.6594 14.7688C28.1679 14.7688 27.7694 14.3703 27.7694 13.8788C27.7694 13.3872 28.1679 12.9888 28.6594 12.9888C29.1509 12.9888 29.5494 13.3872 29.5494 13.8788Z" fill="#FFDEA7"/>
<path d="M14.1294 13.7788C14.6209 13.7788 15.0194 13.3803 15.0194 12.8888C15.0194 12.3972 14.6209 11.9988 14.1294 11.9988C13.6378 11.9988 13.2394 12.3972 13.2394 12.8888C13.2394 13.3803 13.6378 13.7788 14.1294 13.7788Z" fill="#FFDEA7"/>
<path d="M10.9691 25.4069C10.9691 25.8984 10.5707 26.2969 10.0791 26.2969C9.58762 26.2969 9.18915 25.8984 9.18915 25.4069C9.18915 24.9153 9.58762 24.5169 10.0791 24.5169C10.5707 24.5169 10.9691 24.9153 10.9691 25.4069Z" fill="#FFDEA7"/>
<path d="M19.7894 27.0987C20.1374 27.0987 20.4194 26.8167 20.4194 26.4687C20.4194 26.1208 20.1374 25.8387 19.7894 25.8387C19.4415 25.8387 19.1594 26.1208 19.1594 26.4687C19.1594 26.8167 19.4415 27.0987 19.7894 27.0987Z" fill="#FFDEA7"/>
<path d="M17.3494 12.7387C17.5814 12.7387 17.7694 12.5506 17.7694 12.3187C17.7694 12.0867 17.5814 11.8987 17.3494 11.8987C17.1175 11.8987 16.9294 12.0867 16.9294 12.3187C16.9294 12.5506 17.1175 12.7387 17.3494 12.7387Z" fill="#FFDEA7"/>
<path d="M28.4994 17.7587C28.4994 17.9907 28.3114 18.1787 28.0794 18.1787C27.8475 18.1787 27.6594 17.9907 27.6594 17.7587C27.6594 17.5268 27.8475 17.3387 28.0794 17.3387C28.3114 17.3387 28.4994 17.5268 28.4994 17.7587Z" fill="#FFDEA7"/>
<path d="M4.16943 11.4888C4.58365 11.4888 4.91943 11.153 4.91943 10.7388C4.91943 10.3246 4.58365 9.98877 4.16943 9.98877C3.75522 9.98877 3.41943 10.3246 3.41943 10.7388C3.41943 11.153 3.75522 11.4888 4.16943 11.4888Z" fill="#FFDEA7"/>
<path d="M13.2284 27.9277C13.2777 27.8572 13.2464 27.7375 13.156 27.7085L12.0615 27.3005C11.9711 27.2615 11.8717 27.3225 11.8628 27.4226C11.8264 27.7531 12.0301 28.0909 12.3514 28.2073C12.6727 28.3238 13.0415 28.2098 13.2284 27.9277Z" fill="#FFDEA7"/>
<path d="M27.223 7.88379C27.163 7.80379 27.193 7.69379 27.283 7.65379C27.593 7.52379 27.963 7.60379 28.183 7.88379C28.393 8.16379 28.383 8.54379 28.183 8.80379C28.123 8.88379 28.003 8.88379 27.953 8.80379L27.223 7.88379Z" fill="#FFDEA7"/>
<path d="M5.83034 16.0232C5.74034 16.0232 5.66035 16.1132 5.68035 16.2032L5.91035 17.3532C5.93035 17.4432 6.03034 17.4932 6.12034 17.4532C6.42034 17.3032 6.60034 16.9632 6.53034 16.6232C6.46034 16.2832 6.17034 16.0432 5.83034 16.0232Z" fill="#FFDEA7"/>
</svg>

<svg xmlns="http://www.w3.org/2000/svg" width="32" height="32" fill="none"><path fill="#FFB02E" d="M29.959 21.249a1.795 1.795 0 0 0-1.27-1.34c0 .002-.003.004-.003.004 0-.002 0-.005-.002-.007h.005c.13-.311.257-.62.359-.94 3.014-9.422-3.14-13.947-7.943-13.947a8.652 8.652 0 0 0-5.078 1.64 7.227 7.227 0 0 0-.896-.559A8.604 8.604 0 0 0 10.917 5c-4.803 0-8.776 3.58-8.776 9.466 0 1.571.27 3.092.76 4.502.11.319.228.627.36.935h-.003v.005c-.65.2-1.1.753-1.217 1.31a1.774 1.774 0 0 0 1.35 2.12c.25.062 1.35.247 2.252.31l-.003-.002.058.007c-.019-.002-.038-.002-.055-.005.32.36.67.712 1.03 1.04a13.786 13.786 0 0 0 9.295 3.6c3.573 0 6.844-1.36 9.297-3.59.359-.329.706-.678 1.024-1.045l.008-.002c.002 0 .004-.003.007-.003.459-.034 1.955-.172 2.302-.289a1.773 1.773 0 0 0 1.353-2.11ZM21.095 8.572c2.85 0 7.402 2.868 4.05 10.586-.157.362-.38.68-.59 1h.003c-.003 0-.003.003-.005.003l.002-.003a16.511 16.511 0 0 1-1.74-.17 16.676 16.676 0 0 1-3.886-1.454l-.224-.124-.119-.068v-.007c1.331-2.152.994-4.08 1.047-4.617a8.7 8.7 0 0 0-1.2-4.398c0-.002.003-.002.003-.005a5.093 5.093 0 0 1 2.659-.743Zm-10.168-.02c.62 0 1.221.11 1.78.312.2.077.4.167.592.267v.002s.149.078.26.144c.015.01.032.017.046.026 0 0 .003 0 .003.003-1.525 2.576-1.166 4.825-1.222 5.313 0 1.08.231 2.03.632 2.883.131.31.48.881.48.881-1.51.904-3.802 1.698-6.121 1.76l-.008-.002-.012-.007a7.018 7.018 0 0 1-.573-1c-3.405-7.63 1.302-10.581 4.143-10.581Zm5.044 16.22c-1.401 0-2.732-.279-3.951-.791-.481-.19-.93-.43-1.37-.69.36-.09.799-.209 1.309-.379.76-.24 1.651-.58 2.543-1.04.57-.288 1.09-.599 1.568-.939h.003c.3.209.6.4.91.57 1.071.62 2.162 1.072 3.063 1.383.49.17.93.3 1.28.39-.42.26-.87.491-1.329.68a10.281 10.281 0 0 1-4.026.816Z"/><path fill="#D3883E" d="M13.608 9.303a8.568 8.568 0 0 1 2.421-2.642c-.291-.209-.59-.4-.899-.56-.961.73-1.83 3.03-1.83 3.03s.199.107.308.172ZM16.979 21.499a9.61 9.61 0 0 1-.911-.57c1.08-.76 1.92-1.633 2.51-2.592.137.08.411.23.411.23s-.978 2.152-2.01 2.932ZM4.51 19.924c.582.1 1.409.24 2.854.215-.21-.32-.41-.66-.58-1.01a14.992 14.992 0 0 1-2.43-.24c-.68-.15-1.18 0-1.376.06l-.075.02c.11.32.229.628.36.94.398-.128.724-.073 1.247.015ZM11.907 24.009c.063-.017.1-.027.11-.028-.48-.19-.93-.43-1.37-.688-1.641.401-3.295.479-5.002.36.318.36.67.709 1.03 1.04 2.031.155 4.661-.535 5.232-.684ZM26.294 23.65c-.32.37-.67.722-1.03 1.052h-.32c-2.254 0-3.445-.334-4.387-.597a19.49 19.49 0 0 0-.567-.153c.461-.19.91-.42 1.33-.68.462.13.77.189.831.199h.02c1.318.235 2.763.279 4.123.18ZM28.686 19.908c.129-.308.25-.619.36-.94l-.11-.031c-.557-.149-.96-.083-1.561.014-.52.084-1.188.192-2.232.207-.18.35-.379.68-.59 1 1.532.043 2.363-.106 2.946-.21.478-.086.79-.142 1.187-.04ZM18.89 10.214c-2.084.6-2.803 3.502-2.803 3.502 0-.311-.02-.61-.08-.901a5.201 5.201 0 0 1 2.421-3.502 8.5 8.5 0 0 1 .462.9ZM16.01 15.338a3.332 3.332 0 0 1-.08-.721s-.348 1.782-2.912 2.882c.13.311.3.603.48.882 1.19-.712 2.232-1.703 2.512-3.043Z"/><path fill="#FFDEA7" d="M9.42 6.819a.42.42 0 1 1-.84 0 .42.42 0 0 1 .84 0ZM25 7.089a.48.48 0 1 1-.96 0 .48.48 0 0 1 .96 0ZM29.55 13.879a.89.89 0 1 1-1.78 0 .89.89 0 0 1 1.78 0ZM14.13 13.779a.89.89 0 1 0 0-1.78.89.89 0 0 0 0 1.78ZM10.97 25.407a.89.89 0 1 1-1.78 0 .89.89 0 0 1 1.78 0ZM19.79 27.099a.63.63 0 1 0 0-1.26.63.63 0 0 0 0 1.26ZM17.35 12.739a.42.42 0 1 0 0-.84.42.42 0 0 0 0 .84ZM28.5 17.759a.42.42 0 1 1-.84 0 .42.42 0 0 1 .84 0ZM4.17 11.489a.75.75 0 1 0 0-1.5.75.75 0 0 0 0 1.5ZM13.228 27.928c.05-.07.018-.19-.072-.22l-1.095-.407a.143.143 0 0 0-.198.122.75.75 0 0 0 1.366.505ZM27.223 7.884a.15.15 0 0 1 .06-.23c.31-.13.68-.05.9.23.21.28.2.66 0 .92-.06.08-.18.08-.23 0l-.73-.92ZM5.83 16.023c-.09 0-.17.09-.15.18l.23 1.15c.02.09.12.14.21.1.3-.15.48-.49.41-.83a.755.755 0 0 0-.7-.6Z"/></svg>
